X:1
T:Las qu'on congnust
T:Las qu'on congnust
T:Pierre de Manchicourt
C:Pierre de Manchicourt
%%score [ 1 [ 2 3 ] 4 ]
L:1/8
Q:1/4=80
M:2/2
K:C
V:1 treble nm="Superius" snm="S"
V:2 treble-8 nm="Tenor 1" snm="T 1"
V:3 treble-8 nm="Tenor 2" snm="T 2"
V:4 bass nm="Bassus" snm="B"
V:1
 z4 A4 | A2 G2 A2 F2 | A2 c2 B4 | A3 G F2 E2 | G2 A3 B c2 | B2 A4 G2 | A4 z2 A2- | A2 G2 F4 | %8
w: Las|qu'on con- gnust mon|vou- loir sans|le _ _ di-|||re, ou|_ le di-|
 E2 E2 C2 F2 | E2 D2 E4 | z2 A2 G2 F2 | E2 E2 F2 D2 | EFGE F2 E2 | D3 E F2 E2- | ED D4 C2 | %15
w: sant qu'il ne fust|en- ten- du,|ou le di-|sant qu'il ne fust|en- * * * * *||* * * ten-|
 D4 z2 A2 | A2 G2 A2 F2 | A2 c2 B4 | A3 G F2 E2 | G2 A3 B c2 | B2 A4 G2 | A4 z2 A2- | A2 G2 F4 | %23
w: du, si|non aul- tant qu'en|ce- lant je|de- * * si-|||re, ce|_ que la|
 E2 E2 C2 F2 | E2 D2 E4 | z2 A2 G2 F2 | E2 E2 F2 D2 | EF GE F2 E2 | D3 E F2 E2- |"^#" ED D4 C2 | %30
w: peur m'a tous- jours|def- fen- du,|ce que la|peur m'a tous- jours|def- * * * * *||* * * fen-|
 D8 | z2 A2 A2 B2 | cB AG F2 G2 | A2 c2 c2 B2 | A4 z2 D2 | E2 F2 G2 G2 | FEFG A2 c2 | B2 A4 G2 | %38
w: du,|et si ne|veulx _ _ _ a- *|voir riens pre- ten-|du que|in- ste- ment a-|mour _ _ _ _ puis-|s'es- con- dui-|
 A4 z4 | z4 z2 A2 | B2 c2 d2 d2 | c3 B A2 G2- | GF F4 E2 | F2 A2 A4 |: A6 GF | G4 z2 F2 | A6 A2 | %47
w: re,|que|in- ste- ment a-|mour puis- s'es- con-|* * dui- *|re, O le|ce- * *|ler, tu|as tant|
 G2 E2 F4 | E4 c2 c2 | c2 A2 z2 A2 | A2 A2 F2 z F | F2 F2 DEFG | A2 E2 F2 F2 | E2 D4 C2 | %54
w: at- * ten-|du que feu|crain- tif, que|feu crain- tif, que|feu crain- tif _ _ _|_ me cau- se|grabd mar- ti-|
 D2 A2 A4 :| D8 |] %56
w: re, O le|re.|
V:2
 d4 f2 c2 | d2 e2 f2 d2 | c2 e2 f2 ed | c2 d4 c2 | de fg af g2- | g2 f2 e4 | z2 c2 B2 A2 | %7
w: Las qu'on con-|gnust mon vou- loir|sans le di- * *|||* * re,|ou le di-|
 e4 z2 d2 | c2 B2 A2 d2 | B2 A2 B2 c2- | cA f2 e2 d2- | d2 c2 d4 | z2 d4 c2 | _B4 A2 c2 | %14
w: sant, ou|le di- sant qu'il|ne fust en- ten-||* * du,|ou le-|di- sant qu'il|
 d2 G2 A2 A2 | F2 d2 f2 c2 | d2 e2 f2 d2 | c2 e2 f2 ed | c2 d4 c2 | defg af g2- | g2 f2 e4 | %21
w: ne fust en- ten-|du, si non aul-|tant qu'en ce- lant|je de- si- * *|||* * re,|
 z2 d2 c2 B2 | e4 z2 d2 | c2 B2 A2 d2 | B2 A2 B2 c2- | cA f2 e2 d2- | d2 c2 d4 | z2 d4 c2 | %28
w: ce que la|peur, ce|que la peur m'a|tous- jours def- fen-||* * du,|ce que|
 _B4 A2 c2 | d2 G2 A2 A2 | F2 f2 f2 f2 | e2 f4 ed | c2 c2 d3 e | fg a4 gf | e2 f3 e dc | B2 c2 G4 | %36
w: la peur m'a|tous- jours def- fen-|du, et si ne|veulx a- * *|voir riens pre- *|ten- * * * *|||
 A4 z2 A2 | B2 c2 d2 d2 | c2 e2 d2 c2- | c2 B2 c4 | B2 A4 G2 | A3 B cd e2 | c8 | z2 f2 f4 |: %44
w: du, que|in- ste- ment a-|mour puis- s'es- con-|* dui- *|||re,|O le|
 e2 f4 ed | e4 A4 | z2 c2 f3 e | d2 c4 B2 | c2 c2 c2 c2 | A3 B c4 | z2 A2 A2 A2 | F2 A2 _B2 B2 | %52
w: ce- * * *|* ler,|tu as aul-|tant at- ten|du, que feu crain-|* * tif,|que feu crain-|* * tif me|
 c6 c2 | c2 B2 A4 | A2 f2 f4 :| A8 |] %56
w: cau- se|grand mar- ti-|re, O le|re.|
V:3
 z8 | z8 | A4 A2 G2 | A2 F2 A2 c2 | B2 AB cd e2 | d2 c2 B4 | A4 d4 | c2 B2 A4 | z4 z2 A2 | %9
w: ||Las qu'on con-|gnust mon vou- lor|sans le _ _ _ di-||re, ou|le di- sant,|ou|
 G2 F2 E2 E2 | F2 D2 E2 F2 | G2 A2 D2 z F | E2 D2 A2 A2 | F2 G2 F2 G2- | GF D2 E4 | D4 z4 | z8 | %17
w: le di- sant qu'il|ne fust en- *|* ten- du, ou|le di- sant qu'il|ne fust en- ten-||du,||
 A4 A2 G2 | A2 F2 A2 c2 | B2 AB cd e2 | d2 c2 B4 | A4 d4 | c2 B2 A4 | z4 z2 A2 | G2 F2 E2 E2 | %25
w: si non aul-|tant qu'en ce- lant|je de- * * * si-||re, ce|que la peur,|ce|que la peur m'a|
 F2 D2 E2 F2 | G2 A2 D2 z F | E2 D2 A2 A2 | F2 G2 F2 G2- | GF D2 E4 | D2 A2 A2 B2 | cB AG F2 G2 | %32
w: tous- jours def- *|* fen- du, ce|que la peur m'a|tous- jours def- *|* * * fen-|du, et si ne|veulx _ _ _ a- voir|
 AG FE D2 G2 | F3 G AD d2- |"^#" d2 c2 d4 | z2 A2 B2 c2 | d2 d2 c3 B | G2 A2 B2 B2 | A2 c2 B2 A2- | %39
w: riens _ _ _ _ pre-|ten- * * * *|* * du,|que in- ste-|ment a- mour _|_ puis' s"es- con|dui- * * *|
 A2 GF EDEF | G2 E4 D2 | E2 A2 F2 G2 | A4 G4 | F4 z2 A2 |: c2 d3 c A2 | B2 c2 d4 | z2 A2 c2 d2 | %47
w: ||||re, O|le ce- * *|* * ler,|tu as aul-|
 B2 G4 F2 | G4 z2 c2 | c2 c2 A2 z F | F2 F2 DEFG | A2 F4 ED | E2 A2 A2 A2 | G2 F2 E4 | D4 z2 A2 :| %55
w: tant at- ten-|du, que|feu crain- tif, que|feu crain- tif _ _ _|_ me _ _|cau- se grand mar-|ti- * *|re, O|
 D8 |] %56
w: re.|
V:4
"^#" z8 | z4 D,4 | F,2 C,2 D,2 E,2 | F,2 D,E, F,G, A,2 | G,2 F,3 E, C,2 | G,2 A,2 E,4 | %6
w: |Las|qu'on con- gnust mon|vou- loir _ _ _ _|sans le _ _|di- * re,|
 z2 A,2 G,2 F,2 | E,2 E,2 F,2 D,2 | A,2 E,2 F,2 D,2 | E,A,, A,4 G,2 | A,4 z4 | z4 z2 D,2 | %12
w: ou le di-|sant qu'il ne fust|en- ten- * *||du,|ou|
 C,2 B,,2 A,,2 A,,2 | _B,,2 G,,2 D,2 C,2 | B,,4 A,,B,, C,A,, | B,,4 A,,4 |"^#" z4 D,4 | %17
w: le di- sant qu'il|ne fust en- *|ten- * * * *|* du,|si|
 F,2 C,2 D,2 E,2 | F,2 D,E, F,G, A,2 | G,2 F,3 E, C,2 | G,2 A,2 E,4 | z2 A,2 G,2 F,2 | %22
w: non aul- tant qu'en|ce- lant _ _ _ _|je de- * *|si- * re,|ce que la|
 E,2 E,2 F,2 D,2 | A,2 E,2 F,2 D,2 | E,A,, A,4 G,2 | A,4 z4 | z4 z2 D,2 | C,2 B,,2 A,,2 A,,2 | %28
w: peur, ce que la|peur m'a tous- jours|def- * * fen-|du,|ce|que la peur m'a|
 _B,,2 G,,2 D,2 C,2 |"^b" B,,4 A,,4 | z2 D,2 D,2 D,2 | C,2 D,3 C, B,,2 | A,,2 A,2 A,2 B,2 | %33
w: tous- jours def- *|fen- du,|et si ne|veulx a- * *|voir riens pre- ten-|
 CB, A,G, F,2 G,2 | A,4 D,2 G,2- | G,2 F,2 E,4 | D,4 A,,4 | z8 | z2 A,,2 B,,2 C,2 | %39
w: |* du, riens|_ pre- ten-|* du,||que in- ste-|
 D,2 D,2 C,2 A,,2 | G,,2 A,,2 B,,4 | A,,2 F,4 E,2 | F,4 C,4 | z2 D,2 F,3 G, |: A,2 D,2 F,4 | %45
w: ment a- mour puis-|s'es- con- dui-||* re,|O le _|_ ce- *|
 E,4 D,2 D,2 | F,6 D,2 | G,2 C,2 D,4 | C,8 |"^#" z2 F,2 F,2 F,2 | D,E, F,G, A,2 D,2 | %51
w: * ler, tu|as aul-|tant at- ten-|du,|que feu crain-|tif, _ _ _ _ que|
 D,2 D,2 _B,,2 B,,2 | A,,3 G,, F,,G,, A,,B,, | C,2 D,2 A,,4 | z2 D,2 F,3 G, :| D,8 |] %56
w: feu crain- tif me|cau- se grand _ mar- *|ti- * re,|O ce- *|re.|

